X:188
T:Turkey in the Straw
C:(Non-traditional)
N:TablEdited by David Ogershok
L:1/8
Q:1/4=195
M:4/4
K:G
[g^cE^A,]e c^A ec AG | ^c^A GE AG E^C | "G"DE GA BA GB | "D7"AG FA "G"G^A B=A | 
|: "G"GF GA GD B,C | DE DB, DE GA | BA Bd "G#dim"BA ^GB | "D7"AB dB A^A B=A | 
"G"GF GA GD B,C | DE DB, DE GA | Bd de dB GA | "D7"BA GF "G"G^A B=A :| GF GA GD B,C | 
DE DB, DE GA | BA Bd "G#dim"BA ^GB | "D7"AB dB A^A B=A | "G"GF GA GD B,C | DE DB, DE GA | 
Bd de dB GA | "D7"BA GF "G"Gz DE |: GF GA Bz Bc | dz de =fe dB | "C"cc ^AG Ez cc | 
^Ac AG EG =A_B | "G"Bc de dB A^A | BG ED G2 GA | Bd ge dd Bc |1 BG FA G4 :|2 "D7"BG FA "G"G2 "Gmin"^A=A | 
|: GF G^G =GD ^DC | D^D =DC DD GA | ^A=A _Bc BA GA | "D7"^A=A A_B AB cA | "Gmin"GF G^G =GD ^DC | 
D^D =DC DD GA | ^A=A _Bc BA GA |1 "D7"G=F GA "Gmin"G2 ^A=A :|2 "D7"G=F GA "Gmin"G4 | 
|: "Gmin"GA ^Ac dc A=A | GA ^Ac d4 | "Cmin"CD ^D=F GF D=D | "Cmin"CD ^D=F G4 | 
"Gmin"gd ^AG dA GD | "Gmin"GD ^A,D G,2 G,=A, | ^A,D ^D=D A,=A, G,A, | ^A,G, =A,_B, G,4 :| "Gdim"G,^A, ^CE G^A ^ce | 
ge ^c^A GE ^C^A, | "G"DE GA BA GB | "D7"AG FA "G"G4 | 


